X: 146
T:Lo Ahavti Dai
C:Naomi Shemer 1977
O:Israeli
I:choreographer Y.Levy
F: http://www.youtube.com/watch?v=CbedCRS4BdE
F: http://www.youtube.com/watch?v=Gs11hgW-Oow
F: http://www.youtube.com/watch?v=x2HPi6nBKYc
Q:1/4=132
L:1/8
M:4/4
K:Em
   "G"B2 d2 "D"GF z2  | "G"G G2 F/E/"D"F z3 | "Em"E2 E2 "D"D2 G2  | FE F2 "Em"E2 z D    |
%%sep 10 10
|: "Em"GG GG G2 z G   | "Bm"FF FF "Em"E2 z F| GG GG G2 z G        | "Am"AA DD "Em"B2 z2 |
   "Em"BB BB "Am"c2 BB| "D"AA dd B2 z A     |"G"GG GG "D"A2 G2    | FF BB "Em"E2 z2     |
   B3 G/G/ "Am"A4     | "Em"GGGG "Bm"F2 zD  | "Em"E2 E2 "Bm"D2 G2 | "F#m"A2 GA "Bm"B2 z2|
   "Em"B3 G/G/ "Am"A4 | "Em"GGGG  "Bm"F2 zD |"Em"E2 E2 "Bm"D2 G2  | FD D2 "Em"E2 z2     :| 



